X:1
T:Partition sans titre
C:Compositeur / Arrangeur
L:1/8
M:4/4
I:linebreak $
K:G
V:1 treble nm="Violon" snm="Vln."
V:1
"Em" GABE PE D3- | D2 E6 | GABE PED"D" A2- | A8 ::"Em" B>E E>F G>G (3FED | G>F G>A B>E (3FED | %6
 E>D E>F G>F G>B |1"D" (3ABA d>F (3FED FG/A/ :|2"D" (3ABA d>F (3FED"Em" E>e |: %9
"Em" (3gfe (3fed e>d BPA | B>d d/f/e/d/ B>e e>f | (3gfe (3fed e>d BG |1"D" A>c B>A G>E F>e :|2 %13
"D" A>c B>A G>E"Em" E2 | F8 |] %15
